packages/ui-icons/svg/Line/certified.svg

<svg viewBox="0 0 1920 1920" version="1.1" xmlns="http://www.w3.org/2000/svg">
    <path d="M960,15 L1226.66667,256.92 L1586.56,243.053333 L1635.30667,599.96 L1920,820.546667 L1728,1125.18667 L1804.26667,1477.29333 L1461.33333,1587.16 L1293.44,1905.77333 L960,1769.56 L626.56,1905.77333 L458.666667,1587.16 L115.733333,1477.29333 L192,1125.18667 L0,820.546667 L284.693333,599.96 L333.44,243.053333 L693.333333,256.92 L960,15 Z M960,159 L764.906667,335.96 L732.693333,365.186667 L689.173333,363.586667 L425.92,353.453333 L390.293333,614.36 L384.426667,657.56 L349.973333,684.12 L141.866667,845.506667 L282.24,1068.44 L305.493333,1105.13333 L296.213333,1147.8 L240.533333,1405.18667 L491.306667,1485.61333 L532.8,1498.94667 L553.173333,1537.45333 L675.84,1770.41333 L919.68,1670.89333 L960,1654.36 L1000.32,1670.89333 L1244.16,1770.41333 L1366.93333,1537.45333 L1387.2,1498.94667 L1428.69333,1485.61333 L1679.46667,1405.18667 L1623.78667,1147.8 L1614.50667,1105.13333 L1637.76,1068.44 L1778.24,845.506667 L1570.02667,684.12 L1535.57333,657.56 L1529.70667,614.36 L1493.97333,353.453333 L1230.93333,363.586667 L1187.30667,365.186667 L1155.09333,335.96 L960,159 Z M1301.056,772.482667 L1365.58933,857.496 L803.989333,1283.736 L548.949333,1028.696 L624.362667,953.282667 L813.589333,1142.50933 L1301.056,772.482667 Z" stroke="none" stroke-width="1" fill-rule="evenodd"/>
</svg>

<svg viewBox="0 0 1920 1920" xmlns="http://www.w3.org/2000/svg">
    <path d="m960 15 266.667 241.92 359.893-13.867 48.747 356.907L1920 820.547l-192 304.64 76.267 352.106-342.934 109.867-167.893 318.613L960 1769.56l-333.44 136.213-167.893-318.613-342.934-109.867L192 1125.187 0 820.547 284.693 599.96l48.747-356.907 359.893 13.867L960 15Zm0 144L764.907 335.96l-32.214 29.227-43.52-1.6-263.253-10.134-35.627 260.907-5.866 43.2-34.454 26.56-208.106 161.387L282.24 1068.44l23.253 36.693-9.28 42.667-55.68 257.387 250.774 80.426 41.493 13.334 20.373 38.506 122.667 232.96 243.84-99.52L960 1654.36l40.32 16.533 243.84 99.52 122.773-232.96 20.267-38.506 41.493-13.334 250.774-80.426-55.68-257.387-9.28-42.667 23.253-36.693 140.48-222.933-208.213-161.387-34.454-26.56-5.866-43.2-35.734-260.907-263.04 10.134-43.626 1.6-32.214-29.227L960 159Zm341.056 613.483 64.533 85.013-561.6 426.24-255.04-255.04 75.414-75.413 189.226 189.226 487.467-370.026Z" fill-rule="evenodd"/>
</svg>
